icons/mosquito_collection_fill.svg

<svg width="48" height="48" viewBox="0 0 48 48" fill="none" xmlns="http://www.w3.org/2000/svg">
<path fill-rule="evenodd" clip-rule="evenodd" d="M24 4C24.5523 4 25 4.44772 25 5V11.9509C25.0953 12.1025 25.1857 12.2752 25.2702 12.4665L27.2288 10.2559L28.0558 7.88565C28.2378 7.3642 28.808 7.08897 29.3294 7.27091C29.8509 7.45285 30.1261 8.02307 29.9442 8.54452L29.0522 11.1009C29.0093 11.2238 28.9429 11.3372 28.8565 11.4346L26.3777 14.2324L36.7631 15.428L36.9584 16.0461C37.1986 16.8067 37.1019 17.8817 36.213 18.7292C35.3633 19.5394 33.9368 20.0005 31.8144 20.0005C29.5861 20.0005 28.0519 19.3073 27.0755 18.3055C26.5361 17.7522 26.1942 17.1319 25.999 16.5428C25.9997 16.6 26 16.6574 26 16.7151C26 17.4602 25.9461 18.1707 25.8485 18.8188L28.3581 19.7814C28.4689 19.8239 28.5712 19.8858 28.6603 19.9641L30.2111 21.3278L32.181 21.8226C32.7166 21.9571 33.0418 22.5005 32.9072 23.0361C32.7726 23.5717 32.2293 23.8969 31.6937 23.7623L29.489 23.2085C29.3347 23.1697 29.1918 23.0947 29.0723 22.9896L27.4744 21.5845L26.2204 21.1035L27.7754 22.4059C28.0582 22.6427 28.1876 23.016 28.1122 23.377L27.6816 25.4379L28.8232 26.5794C29.153 26.9092 29.2043 27.4121 28.977 27.7957C31.2345 27.6041 33.2309 27.2875 34.8286 26.8881C35.9736 26.6019 36.835 26.2922 37.4205 26C36.8646 25.7225 36.0599 25.4293 35 25.1554V23.0952C38.0792 23.8243 40 24.856 40 26V29.667C40 30.4684 39.5614 31.1053 39 31.5945V39.3078C39 40.3634 38.2054 41.1094 37.4289 41.5936C36.5997 42.1106 35.4663 42.5396 34.1545 42.8855C31.5162 43.5813 27.9264 44 24 44C20.0736 44 16.4838 43.5813 13.8455 42.8855C12.5337 42.5396 11.4003 42.1106 10.5711 41.5936C9.79461 41.1094 9 40.3634 9 39.3078V31.5945C8.43861 31.1053 8 30.4684 8 29.667V26C8 24.8561 9.92077 23.8243 13 23.0952V25.1554C11.94 25.4293 11.1354 25.7225 10.5795 26C11.165 26.2922 12.0264 26.6019 13.1714 26.8881C14.8647 27.3114 17.0058 27.6417 19.4309 27.8288C19.1805 27.4414 19.225 26.9188 19.5643 26.5795L20.7059 25.4379L20.2753 23.3771C20.209 23.0597 20.3007 22.7299 20.5212 22.4922L21.7478 21.1708L20.8282 21.5645L19.3407 22.9664C19.2164 23.0835 19.0642 23.1669 18.8985 23.2085L16.6938 23.7624C16.1582 23.8969 15.6149 23.5718 15.4803 23.0361C15.3458 22.5005 15.6709 21.9572 16.2066 21.8226L18.1586 21.3323L19.5856 19.9874C19.671 19.9069 19.77 19.842 19.8779 19.7958L22.152 18.8222C22.0541 18.1732 22 17.4615 22 16.7151C22 16.6575 22.0003 16.6001 22.001 16.543C21.8058 17.132 21.4639 17.7522 20.9246 18.3055C19.9482 19.3073 18.414 20.0005 16.1857 20.0005C14.0633 20.0005 12.6367 19.5394 11.787 18.7292C10.8982 17.8817 10.8014 16.8067 11.0417 16.0461L11.2369 15.428L21.6223 14.2324L19.1435 11.4346C19.0571 11.3372 18.9907 11.2238 18.9478 11.1009L18.0558 8.54452C17.8739 8.02307 18.1491 7.45285 18.6706 7.27091C19.192 7.08897 19.7622 7.3642 19.9442 7.88565L20.7712 10.2559L22.7298 12.4665C22.8143 12.2752 22.9047 12.1025 23 11.9509V5C23 4.44772 23.4477 4 24 4ZM23.5421 22.0703C23.4977 22.1873 23.4304 22.2978 23.3401 22.3952L22.3388 23.474L22.7742 25.5581C22.8432 25.8884 22.7411 26.2312 22.5025 26.4698L21.0427 27.9295C21.9963 27.9756 22.985 28 24 28C25.1465 28 26.2592 27.9689 27.3259 27.9105L25.885 26.4697C25.6465 26.2311 25.5443 25.8884 25.6133 25.5581L26.0319 23.5545L24.7509 22.4816C24.6148 22.3676 24.5167 22.2251 24.458 22.0702C24.3109 22.165 24.1576 22.2151 24 22.2151C23.8425 22.2151 23.6892 22.165 23.5421 22.0703ZM10 27.938V29.667C10 29.6789 10.0242 29.9444 10.7121 30.3781C11.35 30.7802 12.3394 31.1794 13.6511 31.5292C16.2597 32.2248 19.919 32.667 24 32.667C28.081 32.667 31.7403 32.2248 34.3489 31.5292C35.6606 31.1794 36.65 30.7802 37.2879 30.3781C37.9758 29.9444 38 29.6789 38 29.667V27.938C35.2705 29.1677 30.0241 30 24 30C17.9759 30 12.7295 29.1677 10 27.938ZM38.1302 25.5371C38.1312 25.5372 38.1256 25.5453 38.1102 25.5609C38.1214 25.5448 38.1291 25.5369 38.1302 25.5371ZM9.86984 25.5371C9.8709 25.5369 9.87862 25.5448 9.88982 25.5609C9.87438 25.5453 9.86878 25.5372 9.86984 25.5371ZM34.8643 33.4617C35.6441 33.2537 36.3636 33.0183 37 32.7549V39.3044L36.9994 39.3059C36.9934 39.3279 36.9349 39.5446 36.3707 39.8964C35.7831 40.2628 34.8662 40.6294 33.6445 40.9516C31.2158 41.5922 27.8056 42 24 42C20.1944 42 16.7842 41.5922 14.3555 40.9516C13.1338 40.6294 12.2169 40.2628 11.6293 39.8964C11.065 39.5446 11.0066 39.3279 11.0006 39.3059L11.0001 39.3041L11 32.7549C11.6364 33.0183 12.3558 33.2537 13.1357 33.4617C15.956 34.2137 19.7967 34.667 24 34.667C28.2033 34.667 32.044 34.2137 34.8643 33.4617ZM34.8878 17.2253C34.8709 17.2441 34.8526 17.2629 34.8328 17.2818C34.5232 17.5771 33.7148 18.0005 31.8144 18.0005C30.0198 18.0005 29.0398 17.4555 28.5077 16.9095C28.3626 16.7607 28.2441 16.6051 28.1481 16.4495L34.8878 17.2253ZM13.1672 17.2818C13.1474 17.2629 13.1291 17.2441 13.1123 17.2253L19.8519 16.4495C19.756 16.6051 19.6374 16.7607 19.4924 16.9095C18.9602 17.4555 17.9802 18.0005 16.1857 18.0005C14.2852 18.0005 13.4769 17.5771 13.1672 17.2818Z" fill="black"/>
</svg>

<svg
  xmlns="http://www.w3.org/2000/svg"
  width="24"
  height="24"
  viewBox="0 0 24 24"
  fill="none"
  stroke="currentColor"
  stroke-width="2"
  stroke-linecap="round"
  stroke-linejoin="round"
>
  <path
    fill-rule="evenodd"
    d="M24 4a1 1 0 0 1 1 1v6.95q.143.229.27.517l1.959-2.211.827-2.37a1 1 0 0 1 1.888.659l-.892 2.556a1 1 0 0 1-.195.334l-2.48 2.797 10.386 1.196.195.618c.24.76.144 1.836-.745 2.683-.85.81-2.276 1.271-4.399 1.271-2.228 0-3.762-.693-4.738-1.695a4.6 4.6 0 0 1-1.077-1.762l.001.172c0 .745-.054 1.456-.151 2.104l2.51.962a1 1 0 0 1 .301.183l1.551 1.364 1.97.495a1 1 0 1 1-.487 1.94l-2.205-.555a1 1 0 0 1-.417-.218l-1.598-1.405-1.254-.482 1.555 1.303a1 1 0 0 1 .337.971l-.43 2.06 1.141 1.142a1 1 0 0 1 .154 1.217c2.258-.192 4.254-.508 5.852-.908 1.145-.286 2.006-.596 2.591-.888-.555-.277-1.36-.57-2.42-.845v-2.06c3.08.73 5 1.761 5 2.905v3.667c0 .801-.439 1.438-1 1.927v7.714c0 1.055-.795 1.801-1.571 2.286-.83.517-1.963.946-3.275 1.291C31.517 43.582 27.926 44 24 44s-7.516-.419-10.154-1.114c-1.312-.346-2.446-.775-3.275-1.292C9.795 41.109 9 40.364 9 39.308v-7.713c-.561-.49-1-1.127-1-1.928V26c0-1.144 1.92-2.176 5-2.905v2.06c-1.06.274-1.865.567-2.42.845.585.292 1.446.602 2.591.888 1.694.423 3.835.754 6.26.94a1 1 0 0 1 .133-1.248l1.142-1.142-.43-2.06a1 1 0 0 1 .245-.886l1.227-1.321-.92.393-1.487 1.402a1 1 0 0 1-.443.242l-2.204.554a1 1 0 0 1-.487-1.94l1.952-.49 1.427-1.345a1 1 0 0 1 .292-.191l2.274-.974a14 14 0 0 1-.151-2.279 4.6 4.6 0 0 1-1.076 1.762C19.948 19.307 18.414 20 16.185 20c-2.122 0-3.548-.46-4.398-1.27-.889-.848-.986-1.923-.745-2.684l.195-.618 10.385-1.196-2.479-2.797a1 1 0 0 1-.195-.334l-.892-2.556a1 1 0 0 1 1.888-.66l.827 2.37 1.959 2.211q.127-.287.27-.515V5a1 1 0 0 1 1-1m-.458 18.07a1 1 0 0 1-.202.325l-1.001 1.079.435 2.084a1 1 0 0 1-.271.912l-1.46 1.46a61 61 0 0 0 6.283-.02l-1.441-1.44a1 1 0 0 1-.272-.912l.419-2.003-1.281-1.073a1 1 0 0 1-.293-.412.84.84 0 0 1-.458.145.84.84 0 0 1-.458-.145M10 27.938v1.729c0 .012.024.277.712.711.638.402 1.627.801 2.94 1.151 2.608.696 6.267 1.138 10.348 1.138s7.74-.442 10.349-1.138c1.312-.35 2.301-.749 2.939-1.15.688-.435.712-.7.712-.712v-1.729C35.27 29.168 30.024 30 24 30s-11.27-.832-14-2.062m28.13-2.4q.003 0-.02.023a.1.1 0 0 1 .02-.024m-28.26 0q.002-.001.02.023-.023-.024-.02-.024m24.994 7.924c.78-.208 1.5-.444 2.136-.707v6.55c-.007.023-.065.24-.63.591-.587.367-1.504.733-2.725 1.056C31.215 41.592 27.805 42 24 42c-3.806 0-7.216-.408-9.644-1.048-1.222-.323-2.14-.69-2.727-1.056-.564-.351-.622-.568-.628-.59v-.002L11 32.754c.636.264 1.356.5 2.136.708 2.82.752 6.66 1.205 10.864 1.205 4.203 0 8.044-.453 10.864-1.205m.024-16.237-.055.057c-.31.295-1.118.718-3.019.718-1.794 0-2.774-.544-3.306-1.09a2.7 2.7 0 0 1-.36-.46zm-21.72.057-.056-.057 6.74-.776a2.7 2.7 0 0 1-.36.46c-.532.547-1.512 1.092-3.306 1.092-1.9 0-2.71-.424-3.019-.72"
    clip-rule="evenodd"
  />
</svg>
